source/images/icons/icon-editorial/nid-de-poule.svg

<?xml version="1.0" encoding="UTF-8"?>
<svg width="80px" height="80px" viewBox="0 0 80 80" version="1.1" xmlns="http://www.w3.org/2000/svg" xmlns:xlink="http://www.w3.org/1999/xlink">
    <!-- Generator: Sketch 55.2 (78181) - https://sketchapp.com -->
    <title>Illustrative Icons/Nid-de-poule</title>
    <desc>Created with Sketch.</desc>
    <g id="Illustrative-Icons/Nid-de-poule" stroke="none" stroke-width="1" fill="none" fill-rule="evenodd">
        <path d="M59.5716667,70.3333334 C64.0716667,70.3333334 67.1900001,68.0483334 68.6383334,64.0100001 L72.1383334,64.0100001 C72.553882,64.003979 72.9495236,63.8309784 73.236092,63.5299876 C73.5226603,63.2289967 73.6760411,62.8253436 73.6616667,62.4100001 C73.6616667,61.5766667 72.9766667,60.8100001 72.1383334,60.8100001 L67.5000001,60.8100001 C66.8150001,60.8100001 66.0516667,61.3433334 65.9766667,62.0283334 C65.0616667,65.4566667 62.9283334,67.1316667 59.5766667,67.1316667 C55.9200001,67.1316667 53.4100001,65.2983334 52.5666667,62.0283334 C52.3383334,61.3433334 51.7333334,60.8100001 51.0433334,60.8100001 L27.4183334,60.8100001 C26.5492039,60.8441225 25.8524557,61.5408706 25.8183334,62.4100001 C25.823791,63.2913851 26.5369483,64.0045424 27.4183334,64.0100001 L49.8950001,64.0100001 C51.3433334,67.8950001 55.0000001,70.3333334 59.5716667,70.3333334 Z M69.6283334,25.845 C69.6283334,25.0116667 68.9433334,24.245 68.1050001,24.245 C67.1900001,24.245 66.4283334,25.0066667 66.4283334,25.845 C66.4352674,26.2805792 66.6166259,26.6951758 66.9317871,26.995926 C67.2469482,27.2966762 67.6695733,27.4584456 68.1050001,27.445 C68.5205487,27.438979 68.9161903,27.2659783 69.2027586,26.9649875 C69.489327,26.6639967 69.6427078,26.2603436 69.6283334,25.845 L69.6283334,25.845 Z M27.6484003,41.7666667 C27.6550279,43.0214129 27.1595424,44.2267048 26.2722903,45.1139569 C25.3850381,46.0012091 24.1797462,46.4966945 22.925,46.490067 C20.335,46.490067 18.124933,44.28 18.124933,41.69 C18.1183055,40.4352538 18.6137909,39.229962 19.5010431,38.3427098 C20.3882953,37.4554576 21.5935872,36.9599722 22.8483334,36.9665997 C24.1230034,36.9613221 25.34701,37.4653185 26.2483458,38.3666543 C27.1496816,39.2679901 27.653678,40.4919966 27.6484003,41.7666667 Z M21.2483334,41.7666667 C21.2483334,42.6 22.01,43.29 22.925,43.29 C23.3405486,43.283979 23.7361902,43.1109784 24.0227586,42.8099875 C24.3093269,42.5089967 24.4627077,42.1053436 24.4483334,41.69 C24.4455892,40.8498256 23.7651745,40.1694109 22.925,40.1666667 C22.4895732,40.1532211 22.0669482,40.3149905 21.751787,40.6157407 C21.4366258,40.9164909 21.2552674,41.3310876 21.2483334,41.7666667 L21.2483334,41.7666667 Z M59.3433334,41.7666667 C59.3305673,44.3699855 57.2233188,46.477234 54.6200001,46.49 C51.9533334,46.49 49.819958,44.4333334 49.819958,41.7666667 C49.8146555,40.4919966 50.3186518,39.2679901 51.2199876,38.3666543 C52.1213234,37.4653185 53.34533,36.9613221 54.6200001,36.9666246 C57.2850001,36.9666246 59.3433334,39.1 59.3433334,41.7666667 L59.3433334,41.7666667 Z M53.0200001,41.7666667 C53.0260211,42.1822153 53.1990217,42.5778569 53.5000126,42.8644253 C53.8010034,43.1509936 54.2046565,43.3043744 54.6200001,43.29 C55.5013851,43.2845424 56.2145424,42.5713851 56.2200001,41.69 C56.2200001,40.8566667 55.4583334,40.1666667 54.6200001,40.1666667 C54.1921982,40.155573 53.7785872,40.3205231 53.4758264,40.6229688 C53.1730657,40.9254145 53.007685,41.3388536 53.0183334,41.7666667 L53.0200001,41.7666667 Z M45.095,16.3233333 C45.9641295,16.3574557 46.6608777,17.0542039 46.695,17.9233333 C46.6895424,18.8047184 45.9763851,19.5178757 45.095,19.5233333 L32.3716667,19.5233333 C31.4902816,19.5178757 30.7771243,18.8047184 30.7716667,17.9233333 C30.8057891,17.0542039 31.5025373,16.3574557 32.3716667,16.3233333 L45.095,16.3233333 Z M70.4666667,30.645 L70.4666667,49.6883334 C70.4539007,52.2916521 68.3466522,54.3989007 65.7433334,54.4116667 L64.1433334,54.4116667 L64.1433334,59.2116667 C64.1500279,60.4664129 63.6545425,61.6717048 62.7672903,62.558957 C61.8800381,63.4462091 60.6747463,63.9416946 59.4200001,63.935067 C56.8300001,63.935067 54.6200001,61.7250001 54.6200001,59.2116667 L54.6200001,54.4116667 L22.8483334,54.4116667 L22.8483334,59.2116667 C22.8355673,61.8149855 20.7283188,63.922234 18.125,63.935067 C15.4583333,63.935067 13.325,61.8783334 13.325,59.2116667 L13.325,54.4116667 L11.725,54.4116667 C9.21,54.4116667 7,52.2033334 7,49.6883334 L7,32.0916667 L10.2,14.5 C10.7333333,11.5283333 12.41,10 14.9233333,10 L62.5433334,10 C65.0583334,10 66.7333334,11.5233333 67.2666667,14.5 L68.8666667,20.8983333 C68.9486788,21.751524 68.3478691,22.5193881 67.5,22.645 C67.0822799,22.7171914 66.6535172,22.6092626 66.3197578,22.3479077 C65.9859983,22.0865528 65.7784092,21.6961775 65.7483334,21.2733333 L64.1483334,15.0266667 C63.9194445,13.8044444 63.3861112,13.1933333 62.5483334,13.1933333 L14.9233333,13.1933333 C14.0855556,13.1933333 13.5522222,13.8044444 13.3233333,15.0266667 L10.1233333,32.32 L10.1233333,49.6883334 C10.1574557,50.5574628 10.8542039,51.254211 11.7233333,51.2883334 L65.7433334,51.2883334 C66.5766667,51.2883334 67.2666667,50.5266667 67.2666667,49.6883334 L67.2666667,33.7683334 L14.9233333,33.7683334 C14.495817,33.7789627 14.0826456,33.6138074 13.7802525,33.3114143 C13.4778593,33.0090211 13.312704,32.5958497 13.3233333,32.1683334 C13.3293544,31.7527848 13.502355,31.3571431 13.8033458,31.0705748 C14.1043367,30.7840064 14.5079898,30.6306256 14.9233333,30.645 L70.4666667,30.645 Z M19.6483333,54.4116667 L16.5233333,54.4116667 L16.5233333,59.2116667 C16.528791,60.0930518 17.2419483,60.8062091 18.1233333,60.8116667 C18.9566667,60.8116667 19.6466667,60.0500001 19.6466667,59.2116667 L19.6483333,54.4116667 Z M60.9433334,54.4116667 L57.7433334,54.4116667 L57.7433334,59.2116667 C57.7433334,60.0450001 58.5050001,60.8116667 59.4200001,60.8116667 C60.2533334,60.8116667 60.9433334,60.0500001 60.9433334,59.2116667 L60.9433334,54.4116667 Z" id="Shape-color" fill="#ADB5BD"></path>
    </g>
</svg>

<svg width="80" height="80">
    <title>
        Illustrative Icons/Nid-de-poule
    </title>
    <path d="M59.572 70.333c4.5 0 7.618-2.285 9.066-6.323h3.5a1.547 1.547 0 0 0 1.524-1.6c0-.833-.685-1.6-1.524-1.6H67.5c-.685 0-1.448.533-1.523 1.218-.915 3.429-3.049 5.104-6.4 5.104-3.657 0-6.167-1.834-7.01-5.104-.229-.685-.834-1.218-1.524-1.218H27.418c-.869.034-1.566.73-1.6 1.6a1.61 1.61 0 0 0 1.6 1.6h22.477c1.448 3.885 5.105 6.323 9.677 6.323zm10.056-44.488c0-.833-.685-1.6-1.523-1.6-.915 0-1.677.762-1.677 1.6a1.627 1.627 0 0 0 1.677 1.6 1.547 1.547 0 0 0 1.523-1.6zm-41.98 15.922a4.699 4.699 0 0 1-4.723 4.723c-2.59 0-4.8-2.21-4.8-4.8a4.699 4.699 0 0 1 4.723-4.723 4.78 4.78 0 0 1 4.8 4.8zm-6.4 0c0 .833.762 1.523 1.677 1.523a1.547 1.547 0 0 0 1.523-1.6 1.528 1.528 0 0 0-1.523-1.523 1.627 1.627 0 0 0-1.677 1.6zm38.095 0a4.747 4.747 0 0 1-4.723 4.723c-2.667 0-4.8-2.057-4.8-4.723a4.78 4.78 0 0 1 4.8-4.8c2.665 0 4.723 2.133 4.723 4.8zm-6.323 0a1.547 1.547 0 0 0 1.6 1.523 1.61 1.61 0 0 0 1.6-1.6c0-.833-.762-1.523-1.6-1.523a1.562 1.562 0 0 0-1.602 1.6h.002zm-7.925-25.444c.87.034 1.566.731 1.6 1.6a1.61 1.61 0 0 1-1.6 1.6H32.372a1.61 1.61 0 0 1-1.6-1.6c.034-.869.73-1.566 1.6-1.6h12.723zm25.372 14.322v19.043a4.747 4.747 0 0 1-4.724 4.724h-1.6v4.8a4.698 4.698 0 0 1-4.723 4.723c-2.59 0-4.8-2.21-4.8-4.723v-4.8H22.848v4.8a4.747 4.747 0 0 1-4.723 4.723c-2.667 0-4.8-2.057-4.8-4.723v-4.8h-1.6C9.21 54.412 7 52.203 7 49.688V32.092L10.2 14.5c.533-2.972 2.21-4.5 4.723-4.5h47.62c2.515 0 4.19 1.523 4.724 4.5l1.6 6.398a1.61 1.61 0 0 1-1.367 1.747 1.5 1.5 0 0 1-1.752-1.372l-1.6-6.246c-.229-1.223-.762-1.834-1.6-1.834H14.923c-.837 0-1.37.611-1.6 1.834l-3.2 17.293v17.368c.034.87.731 1.566 1.6 1.6h54.02c.834 0 1.524-.761 1.524-1.6v-15.92H14.923a1.562 1.562 0 0 1-1.6-1.6 1.547 1.547 0 0 1 1.6-1.523h55.544zM19.648 54.412h-3.125v4.8a1.61 1.61 0 0 0 1.6 1.6c.834 0 1.524-.762 1.524-1.6l.001-4.8zm41.295 0h-3.2v4.8c0 .833.762 1.6 1.677 1.6.833 0 1.523-.762 1.523-1.6v-4.8z" fill="#ADB5BD" fill-rule="evenodd"/>
</svg>
